;FLAVOR:Marlin
;TIME:17421
;Filament used: 15.2708m
;Layer height: 0.28
;MINX:64.713
;MINY:40.59
;MINZ:0.28
;MAXX:155.287
;MAXY:179.41
;MAXZ:35
;TARGET_MACHINE.NAME:Creality Ender-3 Pro
;Generated with Cura_SteamEngine 5.6.0
M82 ;absolute extrusion mode
; Ender 3 Custom Start G-code
G92 E0 ; Reset Extruder
G28 ; Home all axes
G1 Z5.0 F3000 ; Move Z Axis up a bit during heating to not damage bed
M104 S175 ; Start heating up the nozzle most of the way
M190 S60 ; Start heating the bed, wait until target temperature reached
M109 S200 ; Finish heating the nozzle
G1 Z2.0 F3000 ; Move Z Axis up little to prevent scratching of Heat Bed
G1 X0.1 Y20 Z0.3 F5000.0 ; Move to start position
G1 X0.1 Y200.0 Z0.3 F1500.0 E15 ; Draw the first line
G1 X0.4 Y200.0 Z0.3 F5000.0 ; Move to side a little
G1 X0.4 Y20 Z0.3 F1500.0 E30 ; Draw the second line
G92 E0 ; Reset Extruder
G1 Z2.0 F3000 ; Move Z Axis up little to prevent scratching of Heat Bed
G1 X5 Y20 Z0.3 F5000.0 ; Move over to prevent blob squish
G92 E0
G92 E0
G1 F1500 E-6.5
;LAYER_COUNT:125
;LAYER:0
M107
G0 F6000 X66.534 Y43.869 Z0.28
;TYPE:SKIRT
G1 F1500 E0
G1 F1200 X67.596 Y42.63 E0.07599
G1 X69.891 Y41.147 E0.20322
G1 X72.32 Y40.59 E0.31926
G1 X145.364 Y40.674 E3.7205
G1 X146.781 Y40.899 E3.78731
G1 X148.729 Y41.885 E3.88897
G1 X150.103 Y42.793 E3.96566
G1 X151.645 Y44.78 E4.08277
G1 X152.437 Y46.552 E4.17315
G1 X152.77 Y48.094 E4.24661
G1 X152.666 Y106.487 E6.96564
G1 X152.462 Y107.613 E7.01892
G1 X152.147 Y108.302 E7.0542
G1 X153.071 Y109.067 E7.11005
G1 X153.569 Y109.617 E7.1446
G1 X154.792 Y111.766 E7.25974
G1 X155.287 Y113.976 E7.3652
G1 X155.287 Y172.04 E10.0689
G1 X154.575 Y174.493 E10.18784
G1 X153.466 Y176.131 E10.27995
G1 X152.404 Y177.37 E10.35593
G1 X150.109 Y178.853 E10.48317
G1 X147.68 Y179.41 E10.59921
G1 X74.555 Y179.41 E14.00421
G1 X72.335 Y178.714 E14.11255
G1 X71.388 Y178.286 E14.16094
G1 X69.588 Y176.824 E14.26892
G1 X68.931 Y176.118 E14.31382
G1 X67.717 Y173.98 E14.42831
G1 X67.223 Y171.808 E14.53203
G1 X67.224 Y113.688 E17.23834
G1 X67.836 Y111.685 E17.33586
G1 X66.929 Y110.933 E17.39072
G1 X66.431 Y110.383 E17.42527
G1 X65.208 Y108.234 E17.54041
G1 X64.713 Y106.024 E17.64587
G1 X64.713 Y47.96 E20.34957
G1 X65.425 Y45.507 E20.46851
G1 X66.534 Y43.869 E20.56061
G0 F6000 X66.838 Y44.129
G1 F1200 X67.862 Y42.934 E20.63389
G1 X70.049 Y41.521 E20.75513
G1 X72.365 Y40.99 E20.86578
G1 X145.301 Y41.069 E24.26198
G1 X146.657 Y41.284 E24.32591
G1 X148.508 Y42.219 E24.42248
G1 X149.829 Y43.092 E24.49621
G1 X151.3 Y44.987 E24.60791
G1 X152.054 Y46.675 E24.694
G1 X152.37 Y48.137 E24.76364
G1 X152.272 Y106.416 E27.47736
G1 X152.077 Y107.493 E27.52833
G1 X151.655 Y108.416 E27.57559
G1 X152.774 Y109.335 E27.64301
G1 X153.242 Y109.852 E27.67548
G1 X154.415 Y111.914 E27.78595
G1 X154.887 Y114.019 E27.8864
G1 X154.887 Y171.984 E30.58549
G1 X154.209 Y174.321 E30.6988
G1 X153.162 Y175.871 E30.7859
G1 X152.138 Y177.066 E30.85918
G1 X149.951 Y178.479 E30.98042
G1 X147.635 Y179.01 E31.09106
G1 X74.617 Y179.01 E34.49108
G1 X72.5 Y178.349 E34.59435
G1 X71.599 Y177.942 E34.64039
G1 X69.881 Y176.551 E34.74332
G1 X69.254 Y175.878 E34.78615
G1 X68.094 Y173.834 E34.89559
G1 X67.623 Y171.763 E34.99448
G1 X67.624 Y113.749 E37.69586
G1 X68.297 Y111.546 E37.80312
G1 X67.226 Y110.665 E37.86769
G1 X66.758 Y110.148 E37.90016
G1 X65.585 Y108.086 E38.01063
G1 X65.113 Y105.981 E38.11108
G1 X65.113 Y48.016 E40.81017
G1 X65.791 Y45.679 E40.92348
G1 X66.838 Y44.129 E41.01058
G0 F6000 X67.142 Y44.389
G1 F1200 X68.128 Y43.238 E41.08115
G1 X70.207 Y41.895 E41.1964
G1 X72.41 Y41.39 E41.30164
G1 X145.238 Y41.464 E44.69282
G1 X146.533 Y41.669 E44.75387
G1 X148.287 Y42.553 E44.84533
G1 X149.555 Y43.391 E44.9161
G1 X150.955 Y45.194 E45.0224
G1 X151.672 Y46.799 E45.10425
G1 X151.97 Y48.179 E45.16999
G1 X151.878 Y106.345 E47.87845
G1 X151.692 Y107.373 E47.92709
G1 X151.163 Y108.531 E47.98637
G1 X152.477 Y109.603 E48.06534
G1 X152.915 Y110.087 E48.09573
G1 X154.039 Y112.062 E48.20155
G1 X154.487 Y114.061 E48.29694
G1 X154.487 Y171.927 E50.99142
G1 X153.842 Y174.149 E51.09916
G1 X152.858 Y175.611 E51.18122
G1 X151.872 Y176.762 E51.25179
G1 X149.793 Y178.105 E51.36704
G1 X147.59 Y178.61 E51.47228
G1 X74.678 Y178.61 E54.86737
G1 X72.665 Y177.984 E54.96553
G1 X71.81 Y177.598 E55.00921
G1 X70.133 Y176.24 E55.10969
G1 X69.579 Y175.64 E55.14772
G1 X68.471 Y173.688 E55.25223
G1 X68.023 Y171.718 E55.34631
G1 X68.024 Y113.81 E58.04275
G1 X68.629 Y111.831 E58.13911
G1 X68.802 Y111.441 E58.15897
G1 X67.523 Y110.397 E58.23585
G1 X67.085 Y109.913 E58.26625
G1 X65.961 Y107.938 E58.37206
G1 X65.513 Y105.939 E58.46745
G1 X65.513 Y48.073 E61.16193
G1 X66.158 Y45.851 E61.26967
G1 X67.142 Y44.389 E61.35173
G0 F6000 X67.446 Y44.649
G1 F1200 X68.394 Y43.542 E61.4196
G1 X70.365 Y42.269 E61.52885
G1 X72.455 Y41.79 E61.62869
G1 X145.176 Y41.859 E65.01489
G1 X146.409 Y42.054 E65.07302
G1 X148.066 Y42.887 E65.15938
G1 X149.281 Y43.69 E65.22719
G1 X150.61 Y45.401 E65.32807
G1 X151.289 Y46.922 E65.40563
G1 X151.57 Y48.222 E65.46756
G1 X151.484 Y106.274 E68.17071
G1 X151.307 Y107.253 E68.21704
G1 X150.67 Y108.647 E68.2884
G1 X152.18 Y109.871 E68.37891
G1 X152.588 Y110.322 E68.40723
G1 X153.663 Y112.21 E68.5084
G1 X154.087 Y114.103 E68.59873
G1 X154.087 Y171.871 E71.28865
G1 X153.476 Y173.977 E71.39076
G1 X152.554 Y175.351 E71.4678
G1 X151.606 Y176.458 E71.53567
G1 X149.635 Y177.731 E71.64493
G1 X147.545 Y178.21 E71.74477
G1 X74.738 Y178.21 E75.13497
G1 X72.829 Y177.619 E75.22802
G1 X72.022 Y177.255 E75.26924
G1 X70.385 Y175.929 E75.36734
G1 X69.906 Y175.404 E75.40043
G1 X68.848 Y173.541 E75.50019
G1 X68.423 Y171.673 E75.5894
G1 X68.424 Y113.87 E78.28095
G1 X68.995 Y111.993 E78.3723
G1 X69.292 Y111.323 E78.40643
G1 X67.82 Y110.129 E78.49468
G1 X67.412 Y109.678 E78.523
G1 X66.337 Y107.79 E78.62417
G1 X65.913 Y105.897 E78.7145
G1 X65.913 Y48.129 E81.40442
G1 X66.524 Y46.023 E81.50653
G1 X67.446 Y44.649 E81.58358
G0 F6000 X67.75 Y44.909
G1 F1200 X66.891 Y46.195 E81.65559
G1 X66.313 Y48.186 E81.75212
G1 X66.313 Y105.854 E84.43739
G1 X66.714 Y107.642 E84.52271
G1 X67.74 Y109.446 E84.61935
G1 X68.072 Y109.818 E84.64257
G1 X69.571 Y111.034 E84.73245
G1 X69.855 Y111.19 E84.74753
G1 X69.687 Y111.419 E84.76076
G1 X69.361 Y112.155 E84.79824
G1 X68.824 Y113.93 E84.88459
G1 X68.823 Y171.628 E87.57125
G1 X69.225 Y173.394 E87.65559
G1 X70.233 Y175.168 E87.7506
G1 X70.637 Y175.618 E87.77876
G1 X72.234 Y176.912 E87.87447
G1 X72.993 Y177.254 E87.91323
G1 X74.798 Y177.81 E88.00118
G1 X147.5 Y177.81 E91.38649
G1 X149.477 Y177.357 E91.48093
G1 X151.34 Y176.154 E91.58419
G1 X152.25 Y175.091 E91.64935
G1 X153.109 Y173.805 E91.72136
G1 X153.687 Y171.814 E91.8179
G1 X153.687 Y114.146 E94.50316
G1 X153.286 Y112.358 E94.58849
G1 X152.26 Y110.554 E94.68512
G1 X151.928 Y110.182 E94.70834
G1 X150.429 Y108.966 E94.79822
G1 X150.153 Y108.815 E94.81287
G1 X150.922 Y107.133 E94.89899
G1 X151.09 Y106.203 E94.94299
G1 X151.17 Y48.264 E97.64088
G1 X150.907 Y47.046 E97.6989
G1 X150.265 Y45.608 E97.77223
G1 X149.007 Y43.989 E97.8677
G1 X147.845 Y43.221 E97.93256
G1 X146.284 Y42.439 E98.01386
G1 X145.114 Y42.254 E98.06901
G1 X72.5 Y42.19 E101.45023
G1 X70.523 Y42.643 E101.54467
G1 X68.66 Y43.846 E101.64793
G1 X67.75 Y44.909 E101.71309
G0 F6000 X68.054 Y45.169
G1 F1200 X68.926 Y44.15 E101.77554
G1 X70.681 Y43.017 E101.87281
G1 X72.545 Y42.59 E101.96185
G1 X145.052 Y42.649 E105.33809
G1 X146.159 Y42.824 E105.39027
G1 X147.624 Y43.555 E105.46651
G1 X148.733 Y44.288 E105.52841
G1 X149.92 Y45.816 E105.6185
G1 X150.524 Y47.169 E105.6875
G1 X150.77 Y48.307 E105.74171
G1 X150.696 Y106.132 E108.43429
G1 X150.537 Y107.013 E108.47598
G1 X149.762 Y108.709 E108.5628
G1 X149.562 Y108.959 E108.57771
G1 X150.178 Y109.277 E108.60999
G1 X151.629 Y110.448 E108.69681
G1 X151.932 Y110.788 E108.71802
G1 X152.909 Y112.506 E108.81005
G1 X153.287 Y114.189 E108.89037
G1 X153.287 Y171.758 E111.57102
G1 X152.743 Y173.633 E111.66193
G1 X151.946 Y174.831 E111.72893
G1 X151.074 Y175.85 E111.79138
G1 X149.319 Y176.983 E111.88865
G1 X147.455 Y177.41 E111.9777
G1 X74.857 Y177.41 E115.35816
G1 X73.157 Y176.889 E115.44096
G1 X72.446 Y176.569 E115.47726
G1 X70.889 Y175.307 E115.57059
G1 X70.562 Y174.936 E115.59361
G1 X69.602 Y173.246 E115.68412
G1 X69.223 Y171.583 E115.76354
G1 X69.224 Y113.99 E118.44531
G1 X69.744 Y112.271 E118.52894
G1 X70.052 Y111.582 E118.56408
G1 X70.474 Y111.06 E118.59533
G1 X69.822 Y110.723 E118.62951
G1 X68.371 Y109.552 E118.71633
G1 X68.068 Y109.212 E118.73754
G1 X67.091 Y107.494 E118.82957
G1 X66.713 Y105.811 E118.90989
G1 X66.713 Y48.242 E121.59054
G1 X67.257 Y46.367 E121.68145
G1 X68.054 Y45.169 E121.74845
G0 F6000 X68.358 Y45.429
G1 F1200 X69.192 Y44.454 E121.80819
G1 X70.839 Y43.391 E121.89947
G1 X72.59 Y42.99 E121.98312
G1 X144.989 Y43.044 E125.35432
G1 X146.036 Y43.21 E125.40368
G1 X147.403 Y43.889 E125.47475
G1 X148.459 Y44.587 E125.53369
G1 X149.575 Y46.023 E125.61838
G1 X150.142 Y47.293 E125.68314
G1 X150.37 Y48.349 E125.73345
G1 X150.302 Y106.061 E128.42076
G1 X150.152 Y106.894 E128.46017
G1 X149.398 Y108.543 E128.5446
G1 X148.875 Y109.124 E128.581
G1 X149.217 Y109.23 E128.59768
G1 X149.957 Y109.612 E128.63645
G1 X151.33 Y110.714 E128.71843
G1 X151.604 Y111.022 E128.73763
G1 X152.532 Y112.654 E128.82505
G1 X152.887 Y114.233 E128.90041
G1 X152.887 Y171.702 E131.5764
G1 X152.376 Y173.463 E131.66179
G1 X151.642 Y174.571 E131.72367
G1 X150.808 Y175.546 E131.78342
G1 X149.161 Y176.609 E131.87469
G1 X147.41 Y177.01 E131.95834
G1 X74.918 Y177.01 E135.33387
G1 X73.321 Y176.524 E135.4116
G1 X72.656 Y176.225 E135.44555
G1 X71.189 Y175.042 E135.53331
G1 X70.888 Y174.701 E135.55448
G1 X69.979 Y173.1 E135.64021
G1 X69.623 Y171.538 E135.71481
G1 X69.624 Y114.05 E138.39169
G1 X70.127 Y112.387 E138.47259
G1 X70.396 Y111.793 E138.50296
G1 X71.134 Y110.878 E138.55769
G1 X70.783 Y110.77 E138.57479
G1 X70.043 Y110.388 E138.61357
G1 X68.67 Y109.286 E138.69555
G1 X68.396 Y108.978 E138.71475
G1 X67.468 Y107.346 E138.80217
G1 X67.113 Y105.767 E138.87753
G1 X67.113 Y48.298 E141.55352
G1 X67.624 Y46.537 E141.6389
G1 X68.358 Y45.429 E141.70079
G0 F6000 X68.692 Y45.65
G1 F1200 X67.991 Y46.709 E141.75993
G1 X67.513 Y48.355 E141.83974
G1 X67.513 Y105.723 E144.51103
G1 X67.845 Y107.198 E144.58143
G1 X68.724 Y108.745 E144.66428
G1 X68.92 Y108.974 E144.67832
G1 X70.26 Y110.05 E144.75834
G1 X70.966 Y110.414 E144.79533
G1 X71.822 Y110.661 E144.83681
G1 X70.739 Y112.005 E144.91719
G1 X70.51 Y112.503 E144.94271
G1 X70.024 Y114.11 E145.02089
G1 X70.023 Y171.493 E147.69288
G1 X70.356 Y172.954 E147.76265
G1 X71.214 Y174.466 E147.8436
G1 X71.489 Y174.777 E147.86293
G1 X72.866 Y175.881 E147.94512
G1 X73.485 Y176.159 E147.97671
G1 X74.978 Y176.61 E148.04934
G1 X147.365 Y176.61 E151.41998
G1 X149.003 Y176.235 E151.49822
G1 X150.542 Y175.241 E151.58353
G1 X151.308 Y174.35 E151.63825
G1 X152.009 Y173.291 E151.69738
G1 X152.487 Y171.645 E151.77719
G1 X152.487 Y114.277 E154.44849
G1 X152.155 Y112.802 E154.51889
G1 X151.276 Y111.255 E154.60174
G1 X151.08 Y111.026 E154.61578
G1 X149.74 Y109.95 E154.6958
G1 X149.034 Y109.586 E154.73278
G1 X148.15 Y109.331 E154.77563
G1 X149.06 Y108.321 E154.83893
G1 X149.767 Y106.775 E154.91809
G1 X149.908 Y105.99 E154.95523
G1 X149.97 Y48.392 E157.63723
G1 X149.759 Y47.416 E157.68373
G1 X149.23 Y46.231 E157.74415
G1 X148.183 Y44.884 E157.8236
G1 X147.225 Y44.247 E157.87717
G1 X145.913 Y43.596 E157.94536
G1 X144.926 Y43.439 E157.9919
G1 X72.635 Y43.39 E161.35807
G1 X70.997 Y43.765 E161.43632
G1 X69.458 Y44.759 E161.52163
G1 X68.692 Y45.65 E161.57634
G0 F6000 X69.026 Y45.871
G1 F1200 X69.723 Y45.064 E161.626
G1 X71.155 Y44.139 E161.70538
G1 X72.68 Y43.79 E161.77822
G1 X144.863 Y43.834 E165.13937
G1 X145.789 Y43.981 E165.18302
G1 X147.003 Y44.58 E165.24606
G1 X147.906 Y45.181 E165.29657
G1 X148.886 Y46.441 E165.3709
G1 X149.377 Y47.54 E165.42695
G1 X149.57 Y48.434 E165.46953
G1 X149.514 Y105.919 E168.14628
G1 X149.382 Y106.656 E168.18114
G1 X148.722 Y108.099 E168.25503
G1 X147.849 Y109.068 E168.31576
G1 X147.28 Y109.547 E168.35039
G1 X147.513 Y109.563 E168.36127
G1 X148.887 Y109.96 E168.42786
G1 X149.519 Y110.286 E168.46098
G1 X150.83 Y111.338 E168.53925
G1 X150.928 Y111.453 E168.54628
G1 X151.778 Y112.95 E168.62644
G1 X152.087 Y114.321 E168.69188
G1 X152.087 Y171.588 E171.35847
G1 X151.642 Y173.119 E171.43271
G1 X150.974 Y174.129 E171.4891
G1 X150.277 Y174.936 E171.53875
G1 X148.845 Y175.861 E171.61813
G1 X147.32 Y176.21 E171.69098
G1 X75.037 Y176.21 E175.05678
G1 X73.649 Y175.794 E175.12425
G1 X73.075 Y175.536 E175.15355
G1 X71.739 Y174.465 E175.23329
G1 X71.543 Y174.235 E175.24736
G1 X70.733 Y172.808 E175.32376
G1 X70.423 Y171.448 E175.38871
G1 X70.424 Y114.17 E178.05582
G1 X70.893 Y112.619 E178.13127
G1 X71.082 Y112.218 E178.15191
G1 X72.145 Y110.898 E178.23083
G1 X72.405 Y110.66 E178.24724
G1 X72.773 Y110.453 E178.2669
G1 X72.487 Y110.437 E178.28024
G1 X71.113 Y110.04 E178.34684
G1 X70.481 Y109.714 E178.37995
G1 X69.17 Y108.662 E178.45822
G1 X69.072 Y108.547 E178.46525
G1 X68.222 Y107.05 E178.54541
G1 X67.913 Y105.679 E178.61085
G1 X67.913 Y48.412 E181.27745
G1 X68.358 Y46.881 E181.35169
G1 X69.026 Y45.871 E181.40807
G0 F6000 X69.329 Y46.132
G1 F1200 X69.988 Y45.369 E181.45502
G1 X71.313 Y44.513 E181.52847
G1 X72.725 Y44.19 E181.59592
G1 X144.8 Y44.229 E184.95203
G1 X145.667 Y44.367 E184.99291
G1 X146.781 Y44.913 E185.05068
G1 X147.629 Y45.478 E185.09813
G1 X148.542 Y46.651 E185.16734
G1 X148.994 Y47.663 E185.21895
G1 X149.17 Y48.477 E185.25773
G1 X149.12 Y105.849 E187.92921
G1 X148.997 Y106.536 E187.96171
G1 X148.384 Y107.877 E188.03037
G1 X147.552 Y108.8 E188.08823
G1 X146.989 Y109.269 E188.12235
G1 X145.979 Y109.725 E188.17395
G1 X145.249 Y109.947 E188.20948
G1 X147.402 Y109.947 E188.30973
G1 X148.74 Y110.334 E188.37459
G1 X149.298 Y110.622 E188.40383
G1 X150.58 Y111.65 E188.48035
G1 X151.401 Y113.096 E188.55777
G1 X151.687 Y114.365 E188.61835
G1 X151.687 Y171.531 E191.28023
G1 X151.275 Y172.949 E191.34899
G1 X150.671 Y173.868 E191.4002
G1 X150.012 Y174.631 E191.44715
G1 X148.687 Y175.487 E191.5206
G1 X147.275 Y175.81 E191.58805
G1 X75.094 Y175.81 E194.9491
G1 X73.813 Y175.429 E195.01133
G1 X73.284 Y175.191 E195.03834
G1 X71.989 Y174.153 E195.11562
G1 X71.891 Y174.038 E195.12265
G1 X71.11 Y172.662 E195.19633
G1 X70.823 Y171.403 E195.25646
G1 X70.824 Y114.229 E197.91872
G1 X71.255 Y112.79 E197.98866
G1 X71.425 Y112.43 E198.0072
G1 X72.415 Y111.193 E198.08098
G1 X72.64 Y110.987 E198.09518
G1 X73.979 Y110.233 E198.16674
G1 X74.775 Y110.053 E198.20474
G1 X72.598 Y110.053 E198.30611
G1 X71.26 Y109.666 E198.37096
G1 X70.702 Y109.378 E198.4002
G1 X69.42 Y108.35 E198.47672
G1 X68.599 Y106.904 E198.55415
G1 X68.313 Y105.635 E198.61472
G1 X68.313 Y48.469 E201.27661
G1 X68.725 Y47.051 E201.34537
G1 X69.329 Y46.132 E201.39658
G0 F6000 X69.632 Y46.394
G1 F1200 X70.255 Y45.673 E201.44094
G1 X71.471 Y44.887 E201.50837
G1 X72.77 Y44.59 E201.57041
G1 X144.737 Y44.624 E204.9215
G1 X145.544 Y44.752 E204.95955
G1 X146.559 Y45.246 E205.01211
G1 X147.352 Y45.775 E205.0565
G1 X148.198 Y46.861 E205.1206
G1 X148.612 Y47.787 E205.16783
G1 X148.77 Y48.519 E205.2027
G1 X148.726 Y105.779 E207.86897
G1 X148.612 Y106.416 E207.8991
G1 X148.046 Y107.655 E207.96253
G1 X147.255 Y108.532 E208.01752
G1 X146.774 Y108.928 E208.04653
G1 X145.863 Y109.342 E208.09313
G1 X144.86 Y109.647 E208.14194
G1 X72.654 Y109.653 E211.50416
G1 X71.409 Y109.293 E211.5645
G1 X70.921 Y109.041 E211.59008
G1 X69.73 Y108.086 E211.66116
G1 X68.976 Y106.758 E211.73227
G1 X68.713 Y105.591 E211.78797
G1 X68.713 Y48.526 E214.44516
G1 X69.092 Y47.221 E214.50844
G1 X69.632 Y46.394 E214.55443
G0 F6000 X69.935 Y46.656
G1 F1200 X70.522 Y45.977 E214.59622
G1 X71.629 Y45.261 E214.65761
G1 X72.815 Y44.99 E214.71426
G1 X144.674 Y45.019 E218.06032
G1 X145.423 Y45.138 E218.09563
G1 X146.337 Y45.579 E218.14288
G1 X147.077 Y46.073 E218.18431
G1 X147.853 Y47.068 E218.24307
G1 X148.229 Y47.91 E218.28601
G1 X148.37 Y48.562 E218.31707
G1 X148.332 Y105.709 E220.97807
G1 X148.227 Y106.296 E221.00584
G1 X147.708 Y107.433 E221.06404
