;FLAVOR:Marlin
;TIME:6265
;Filament used: 15.2397m
;Layer height: 0.6
;MINX:79.821
;MINY:35.699
;MINZ:0.2
;MAXX:170.178
;MAXY:174.301
;MAXZ:35
;TARGET_MACHINE.NAME:Prusa i3 Mk3/Mk3s
;Generated with Cura_SteamEngine 5.6.0
M82 ;absolute extrusion mode
G21 ; set units to millimeters
G90 ; use absolute positioning
M82 ; absolute extrusion mode
M104 S200 ; set extruder temp
M140 S60 ; set bed temp
M190 S60 ; wait for bed temp
M109 S200 ; wait for extruder temp
G28 W ; home all without mesh bed level
G80 ; mesh bed leveling
G92 E0.0 ; reset extruder distance position
G1 Y-3.0 F1000.0 ; go outside print area
G1 X60.0 E9.0 F1000.0 ; intro line
G1 X100.0 E21.5 F1000.0 ; intro line
G92 E0.0 ; reset extruder distance position
G92 E0
G92 E0
G1 F2100 E-0.8
;LAYER_COUNT:59
;LAYER:0
M107
G0 F3600 X80.833 Y40.076 Z0.2
;TYPE:SKIRT
G1 F2100 E0
G1 F1800 X82.304 Y38.016 E0.08419
G1 X84.327 Y36.701 E0.16444
G1 X85.805 Y35.996 E0.21891
G1 X87.419 Y35.754 E0.27319
G1 X160.258 Y35.699 E2.69582
G1 X162.283 Y36.271 E2.76581
G1 X163.687 Y36.943 E2.81758
G1 X165.158 Y38.134 E2.88053
G1 X166.057 Y39.115 E2.92479
G1 X166.947 Y40.818 E2.9887
G1 X167.669 Y42.751 E3.05733
G1 X167.668 Y101.458 E5.00993
G1 X166.995 Y103.315 E5.07563
G1 X167.619 Y103.755 E5.10102
G1 X168.929 Y105.443 E5.17209
G1 X169.888 Y107.463 E5.24646
G1 X170.123 Y109.06 E5.30015
G1 X170.178 Y166.672 E7.21634
G1 X169.626 Y169.03 E7.29688
G1 X168.541 Y170.89 E7.3685
G1 X167.031 Y172.516 E7.44231
G1 X164.524 Y173.957 E7.53848
G1 X162.586 Y174.246 E7.60365
G1 X90.046 Y174.301 E10.01635
G1 X88.086 Y173.881 E10.08302
G1 X86.74 Y173.304 E10.13172
G1 X84.87 Y171.977 E10.20799
G1 X83.569 Y170.29 E10.27885
G1 X82.627 Y168.303 E10.35198
G1 X82.387 Y166.706 E10.4057
G1 X82.332 Y109.011 E12.32464
G1 X82.766 Y107.217 E12.38603
G1 X82.985 Y106.663 E12.40584
G1 X82.374 Y106.23 E12.43075
G1 X81.065 Y104.545 E12.50172
G1 X80.095 Y102.514 E12.57658
G1 X79.821 Y100.128 E12.65646
G1 X79.827 Y43.306 E14.54637
G1 X80.258 Y41.469 E14.60913
G1 X80.833 Y40.076 E14.65925
G0 F3600 X81.186 Y40.27
G1 F1800 X82.586 Y38.309 E14.73939
G1 X84.499 Y37.062 E14.81534
G1 X85.922 Y36.383 E14.86778
G1 X87.478 Y36.15 E14.92011
G1 X160.202 Y36.099 E17.33892
G1 X162.174 Y36.656 E17.40708
G1 X163.473 Y37.284 E17.45506
G1 X164.863 Y38.404 E17.51444
G1 X165.727 Y39.347 E17.55698
G1 X166.572 Y40.958 E17.61748
G1 X167.269 Y42.824 E17.68373
G1 X167.268 Y101.388 E19.63158
G1 X166.515 Y103.466 E19.70509
G1 X167.341 Y104.049 E19.73872
G1 X168.588 Y105.655 E19.80635
G1 X169.5 Y107.578 E19.87713
G1 X169.727 Y109.118 E19.92891
G1 X169.778 Y166.628 E21.8417
G1 X169.251 Y168.88 E21.91862
G1 X168.218 Y170.65 E21.98679
G1 X166.78 Y172.199 E22.05708
G1 X164.391 Y173.572 E22.14873
G1 X162.527 Y173.85 E22.21141
G1 X90.088 Y173.901 E24.62075
G1 X88.211 Y173.499 E24.68459
G1 X86.935 Y172.952 E24.73077
G1 X85.15 Y171.685 E24.80357
G1 X83.912 Y170.079 E24.87101
G1 X83.014 Y168.187 E24.94067
G1 X82.783 Y166.647 E24.99246
G1 X82.732 Y109.059 E26.90785
G1 X83.155 Y107.311 E26.96767
G1 X83.474 Y106.52 E26.99603
G1 X82.654 Y105.939 E27.02946
G1 X81.409 Y104.335 E27.09699
G1 X80.484 Y102.4 E27.16833
G1 X80.221 Y100.128 E27.2444
G1 X80.227 Y43.353 E29.13274
G1 X80.628 Y41.622 E29.19184
G1 X81.186 Y40.27 E29.24049
G0 F3600 X81.539 Y40.464
G1 F1800 X82.868 Y38.603 E29.31655
G1 X84.671 Y37.423 E29.38822
G1 X86.039 Y36.77 E29.43864
G1 X87.537 Y36.546 E29.48901
G1 X160.146 Y36.499 E31.904
G1 X162.065 Y37.041 E31.97032
G1 X163.255 Y37.623 E32.01438
G1 X164.612 Y38.716 E32.07234
G1 X165.397 Y39.579 E32.11114
G1 X166.197 Y41.098 E32.16824
G1 X166.869 Y42.897 E32.23211
G1 X166.868 Y101.318 E34.1752
G1 X166.035 Y103.617 E34.25653
G1 X167.063 Y104.343 E34.29839
G1 X168.245 Y105.866 E34.36251
G1 X169.113 Y107.694 E34.42982
G1 X169.331 Y109.176 E34.47964
G1 X169.378 Y166.584 E36.38904
G1 X168.876 Y168.728 E36.46227
G1 X167.894 Y170.412 E36.52711
G1 X166.529 Y171.882 E36.59383
G1 X164.258 Y173.187 E36.68095
G1 X162.468 Y173.454 E36.74114
G1 X90.13 Y173.501 E39.14712
G1 X88.336 Y173.117 E39.20814
G1 X87.128 Y172.599 E39.25185
G1 X85.431 Y171.395 E39.32106
G1 X84.253 Y169.867 E39.38523
G1 X83.402 Y168.072 E39.4513
G1 X83.179 Y166.588 E39.50121
G1 X83.132 Y109.107 E41.41304
G1 X83.544 Y107.405 E41.47128
G1 X83.964 Y106.378 E41.50819
G1 X82.934 Y105.648 E41.55018
G1 X81.751 Y104.124 E41.61434
G1 X80.873 Y102.287 E41.68206
G1 X80.621 Y100.128 E41.75436
G1 X80.627 Y43.399 E43.64117
G1 X80.998 Y41.775 E43.69658
G1 X81.539 Y40.464 E43.74375
G0 F3600 X81.892 Y40.658
G1 F1800 X83.15 Y38.896 E43.81576
G1 X84.843 Y37.784 E43.88313
G1 X86.156 Y37.157 E43.93152
G1 X87.596 Y36.942 E43.97995
G1 X160.09 Y36.899 E46.39111
G1 X161.956 Y37.426 E46.4556
G1 X163.035 Y37.96 E46.49564
G1 X164.361 Y39.028 E46.55227
G1 X165.066 Y39.81 E46.58729
G1 X165.822 Y41.238 E46.64103
G1 X166.469 Y42.97 E46.70252
G1 X166.468 Y101.248 E48.64086
G1 X165.706 Y103.35 E48.71522
G1 X165.478 Y103.714 E48.72951
G1 X166.785 Y104.637 E48.78273
G1 X167.904 Y106.078 E48.84341
G1 X168.725 Y107.809 E48.90713
G1 X168.935 Y109.234 E48.95504
G1 X168.978 Y166.54 E50.86104
G1 X168.501 Y168.576 E50.93059
G1 X167.57 Y170.174 E50.99211
G1 X166.278 Y171.565 E51.05525
G1 X164.125 Y172.802 E51.13784
G1 X162.409 Y173.058 E51.19554
G1 X90.172 Y173.101 E53.59816
G1 X88.459 Y172.734 E53.65642
G1 X87.322 Y172.247 E53.69756
G1 X85.712 Y171.105 E53.76321
G1 X84.596 Y169.656 E53.82405
G1 X83.789 Y167.956 E53.88664
G1 X83.575 Y166.529 E53.93463
G1 X83.532 Y109.154 E55.84293
G1 X83.915 Y107.555 E55.89762
G1 X84.316 Y106.563 E55.9332
G1 X84.507 Y106.273 E55.94475
G1 X83.214 Y105.357 E55.99746
G1 X82.093 Y103.913 E56.05826
G1 X81.262 Y102.174 E56.12236
G1 X81.021 Y100.128 E56.19088
G1 X81.027 Y43.443 E58.07623
G1 X81.368 Y41.928 E58.12788
G1 X81.892 Y40.658 E58.17358
G0 F3600 X82.245 Y40.852
G1 F1800 X83.432 Y39.189 E58.24153
G1 X85.015 Y38.145 E58.3046
G1 X86.273 Y37.544 E58.35098
G1 X87.655 Y37.338 E58.39745
G1 X160.034 Y37.299 E60.80478
G1 X161.811 Y37.801 E60.8662
G1 X162.82 Y38.3 E60.90364
G1 X164.064 Y39.296 E60.95664
G1 X164.736 Y40.041 E60.99001
G1 X165.447 Y41.378 E61.04038
G1 X166.069 Y43.043 E61.09949
G1 X166.068 Y101.178 E63.03307
G1 X165.33 Y103.214 E63.1051
G1 X164.913 Y103.841 E63.13015
G1 X165.077 Y103.921 E63.13622
G1 X166.507 Y104.931 E63.19444
G1 X167.561 Y106.289 E63.25162
G1 X168.338 Y107.925 E63.31186
G1 X168.539 Y109.292 E63.35781
G1 X168.578 Y166.496 E65.26043
G1 X168.127 Y168.423 E65.32625
G1 X167.244 Y169.937 E65.38455
G1 X166.027 Y171.248 E65.44404
G1 X163.992 Y172.417 E65.5221
G1 X162.35 Y172.662 E65.57732
G1 X90.214 Y172.701 E67.97657
G1 X88.584 Y172.352 E68.03201
G1 X87.515 Y171.894 E68.07069
G1 X85.993 Y170.815 E68.13275
G1 X84.939 Y169.445 E68.19024
G1 X84.176 Y167.84 E68.24935
G1 X83.971 Y166.47 E68.29542
G1 X83.932 Y109.2 E70.20023
G1 X84.286 Y107.705 E70.25133
G1 X84.687 Y106.713 E70.28691
G1 X85.081 Y106.155 E70.30963
G1 X84.92 Y106.076 E70.3156
G1 X83.494 Y105.066 E70.37372
G1 X82.435 Y103.702 E70.43115
G1 X81.651 Y102.061 E70.49164
G1 X81.421 Y100.128 E70.55639
G1 X81.427 Y43.489 E72.44021
G1 X81.738 Y42.081 E72.48817
G1 X82.245 Y40.852 E72.53239
G0 F3600 X82.597 Y41.048
G1 F1800 X83.715 Y39.482 E72.59638
G1 X85.235 Y38.479 E72.65695
G1 X86.388 Y37.932 E72.6994
G1 X87.714 Y37.734 E72.74399
G1 X159.978 Y37.699 E75.1475
G1 X161.666 Y38.176 E75.20584
G1 X162.605 Y38.64 E75.24068
G1 X163.767 Y39.564 E75.29006
G1 X164.405 Y40.271 E75.32173
G1 X165.072 Y41.518 E75.36877
G1 X165.669 Y43.116 E75.4255
G1 X165.668 Y101.108 E77.35433
G1 X164.971 Y103.031 E77.42236
G1 X164.314 Y104.018 E77.46179
G1 X164.846 Y104.248 E77.48107
G1 X166.229 Y105.225 E77.53739
G1 X167.22 Y106.501 E77.59112
G1 X167.95 Y108.04 E77.64778
G1 X168.143 Y109.35 E77.69182
G1 X168.178 Y166.452 E79.59104
G1 X167.752 Y168.271 E79.65318
G1 X166.92 Y169.699 E79.70815
G1 X165.776 Y170.931 E79.76406
G1 X163.859 Y172.032 E79.83759
G1 X162.291 Y172.266 E79.89032
G1 X90.256 Y172.301 E82.28622
G1 X88.709 Y171.97 E82.33883
G1 X87.708 Y171.541 E82.37506
G1 X86.274 Y170.525 E82.43351
G1 X85.282 Y169.234 E82.48766
G1 X84.563 Y167.724 E82.54329
G1 X84.367 Y166.411 E82.58744
G1 X84.332 Y109.249 E84.48866
G1 X84.657 Y107.855 E84.53626
G1 X85.04 Y106.907 E84.57027
G1 X85.692 Y105.983 E84.60788
G1 X85.151 Y105.75 E84.62748
G1 X83.774 Y104.775 E84.68359
G1 X82.779 Y103.493 E84.73757
G1 X82.04 Y101.947 E84.79456
G1 X81.821 Y100.128 E84.8555
G1 X81.827 Y43.534 E86.73782
G1 X82.129 Y42.167 E86.78438
G1 X82.597 Y41.048 E86.82473
G0 F3600 X82.948 Y41.246
G1 F1800 X83.998 Y39.775 E86.88484
G1 X85.455 Y38.813 E86.94291
G1 X86.504 Y38.319 E86.98147
G1 X87.773 Y38.13 E87.02415
G1 X159.922 Y38.099 E89.42383
G1 X161.521 Y38.551 E89.4791
G1 X162.391 Y38.981 E89.51138
G1 X163.518 Y39.877 E89.55926
G1 X164.076 Y40.502 E89.58713
G1 X164.697 Y41.658 E89.63078
G1 X165.269 Y43.189 E89.68513
G1 X165.268 Y101.038 E91.6092
G1 X164.612 Y102.848 E91.67323
G1 X163.715 Y104.195 E91.72706
G1 X164.647 Y104.598 E91.76083
G1 X165.951 Y105.519 E91.81393
G1 X166.877 Y106.712 E91.86416
G1 X167.563 Y108.156 E91.91733
G1 X167.747 Y109.408 E91.95942
G1 X167.778 Y166.408 E93.85525
G1 X167.378 Y168.118 E93.91366
G1 X166.594 Y169.462 E93.96541
G1 X165.525 Y170.614 E94.01768
G1 X163.726 Y171.647 E94.08668
G1 X162.232 Y171.87 E94.13692
G1 X90.298 Y171.901 E96.52945
G1 X88.834 Y171.588 E96.57925
G1 X87.901 Y171.188 E96.61301
G1 X86.555 Y170.235 E96.66786
G1 X85.625 Y169.023 E96.71868
G1 X84.95 Y167.607 E96.77085
G1 X84.763 Y166.352 E96.81305
G1 X84.732 Y109.297 E98.71071
G1 X85.047 Y107.946 E98.75685
G1 X85.393 Y107.101 E98.78722
G1 X86.304 Y105.811 E98.83974
G1 X85.351 Y105.401 E98.87425
G1 X84.052 Y104.482 E98.92717
G1 X83.121 Y103.282 E98.97769
G1 X82.429 Y101.834 E99.03107
G1 X82.221 Y100.128 E99.08823
G1 X82.227 Y43.579 E100.96906
G1 X82.52 Y42.253 E101.01422
G1 X82.948 Y41.246 E101.05062
G0 F3600 X83.299 Y41.443
G1 F1800 X84.281 Y40.067 E101.10684
G1 X85.626 Y39.175 E101.16052
G1 X86.621 Y38.706 E101.19711
G1 X87.832 Y38.526 E101.23783
G1 X159.866 Y38.499 E103.63369
G1 X161.376 Y38.926 E103.68588
G1 X162.176 Y39.321 E103.71555
G1 X163.219 Y40.143 E103.75972
G1 X163.746 Y40.734 E103.78606
G1 X164.322 Y41.798 E103.8263
G1 X164.869 Y43.262 E103.87828
G1 X164.868 Y100.968 E105.79759
G1 X164.252 Y102.667 E105.8577
G1 X163.393 Y103.962 E105.90939
G1 X162.836 Y104.4 E105.93295
G1 X163.554 Y104.561 E105.95743
G1 X164.448 Y104.948 E105.98983
G1 X165.673 Y105.813 E106.03971
G1 X166.536 Y106.924 E106.0865
G1 X167.175 Y108.271 E106.13608
G1 X167.351 Y109.466 E106.17626
G1 X167.378 Y166.364 E108.06869
G1 X167.003 Y167.968 E108.12348
G1 X166.271 Y169.222 E108.17177
G1 X165.274 Y170.297 E108.22054
G1 X163.593 Y171.262 E108.28501
G1 X162.173 Y171.474 E108.33276
G1 X90.34 Y171.501 E110.72194
G1 X88.957 Y171.205 E110.76898
G1 X88.095 Y170.836 E110.80016
G1 X86.835 Y169.944 E110.85151
G1 X85.969 Y168.815 E110.89883
G1 X85.337 Y167.49 E110.94766
G1 X85.159 Y166.293 E110.98791
G1 X85.132 Y109.345 E112.88201
G1 X85.437 Y108.037 E112.92668
G1 X85.744 Y107.298 E112.9533
G1 X86.687 Y105.963 E113.00766
G1 X87.159 Y105.599 E113.02748
G1 X86.446 Y105.439 E113.05179
G1 X85.549 Y105.051 E113.08429
G1 X84.33 Y104.189 E113.13395
G1 X83.463 Y103.071 E113.18101
G1 X82.818 Y101.721 E113.23077
G1 X82.621 Y100.128 E113.28416
G1 X82.627 Y43.624 E115.16349
G1 X82.903 Y42.374 E115.20606
G1 X83.299 Y41.443 E115.23971
G0 F3600 X83.65 Y41.64
G1 F1800 X84.564 Y40.36 E115.29203
G1 X85.797 Y39.537 E115.34133
G1 X86.738 Y39.093 E115.37594
G1 X87.891 Y38.922 E115.41471
G1 X159.81 Y38.899 E117.80674
G1 X161.231 Y39.301 E117.85586
G1 X161.962 Y39.662 E117.88298
G1 X162.971 Y40.457 E117.9257
G1 X163.414 Y40.963 E117.94807
G1 X163.97 Y41.989 E117.98688
G1 X164.469 Y43.334 E118.0346
G1 X164.468 Y100.898 E119.94918
G1 X163.892 Y102.487 E120.0054
G1 X163.097 Y103.686 E120.05325
G1 X161.983 Y104.561 E120.10036
G1 X161.805 Y104.655 E120.10706
G1 X162.189 Y104.665 E120.11983
G1 X163.429 Y104.943 E120.1621
G1 X164.249 Y105.298 E120.19182
G1 X165.395 Y106.107 E120.23848
G1 X166.193 Y107.135 E120.28176
G1 X166.788 Y108.387 E120.32787
G1 X166.955 Y109.524 E120.36609
G1 X166.978 Y166.32 E122.25513
G1 X166.628 Y167.816 E122.30623
G1 X165.947 Y168.984 E122.3512
G1 X165.023 Y169.98 E122.39639
G1 X163.46 Y170.877 E122.45633
G1 X162.114 Y171.078 E122.50159
G1 X90.382 Y171.101 E124.88741
G1 X89.08 Y170.822 E124.93169
G1 X88.293 Y170.485 E124.96017
G1 X87.113 Y169.65 E125.00825
G1 X86.313 Y168.607 E125.05197
G1 X85.724 Y167.373 E125.09745
G1 X85.555 Y166.234 E125.13575
G1 X85.532 Y109.393 E127.02628
G1 X85.827 Y108.128 E127.06949
G1 X86.095 Y107.495 E127.09235
G1 X86.98 Y106.242 E127.14337
G1 X87.994 Y105.461 E127.18594
G1 X88.217 Y105.345 E127.1943
G1 X87.809 Y105.335 E127.20788
G1 X86.571 Y105.057 E127.25008
G1 X85.748 Y104.701 E127.2799
G1 X84.608 Y103.896 E127.32632
G1 X83.805 Y102.86 E127.36992
G1 X83.207 Y101.608 E127.41606
G1 X83.021 Y100.128 E127.46568
G1 X83.027 Y43.669 E129.34351
G1 X83.286 Y42.495 E129.3835
G1 X83.65 Y41.64 E129.4144
G0 F3600 X84.001 Y41.837
G1 F1800 X84.847 Y40.652 E129.46283
G1 X85.968 Y39.899 E129.50775
G1 X86.855 Y39.48 E129.54037
G1 X87.95 Y39.318 E129.57719
G1 X159.754 Y39.299 E131.9654
G1 X161.086 Y39.676 E132.01144
G1 X161.748 Y40.003 E132.036
G1 X162.693 Y40.748 E132.07602
G1 X163.083 Y41.193 E132.09571
G1 X163.618 Y42.18 E132.13305
G1 X164.069 Y43.405 E132.17646
G1 X164.068 Y100.828 E134.08636
G1 X163.532 Y102.307 E134.13868
G1 X162.799 Y103.412 E134.18279
G1 X161.796 Y104.207 E134.22535
G1 X161.143 Y104.552 E134.24992
G1 X159.756 Y104.946 E134.29787
G1 X87.897 Y104.945 E136.68791
G1 X86.696 Y104.675 E136.72886
G1 X85.947 Y104.351 E136.756
G1 X84.886 Y103.602 E136.7992
G1 X84.147 Y102.649 E136.83931
G1 X83.596 Y101.495 E136.88184
G1 X83.421 Y100.128 E136.92768
G1 X83.427 Y43.714 E138.80401
G1 X83.669 Y42.616 E138.84141
G1 X84.001 Y41.837 E138.86957
G0 F3600 X84.352 Y42.034
G1 F1800 X85.131 Y40.943 E138.91416
G1 X86.139 Y40.261 E138.95464
G1 X86.973 Y39.867 E138.98532
G1 X88.008 Y39.714 E139.02012
G1 X159.698 Y39.699 E141.40454
G1 X160.941 Y40.051 E141.4475
G1 X161.534 Y40.344 E141.4695
G1 X162.445 Y41.062 E141.50808
G1 X162.751 Y41.422 E141.5238
G1 X163.266 Y42.371 E141.55971
G1 X163.669 Y43.477 E141.59886
G1 X163.668 Y100.758 E143.50404
G1 X163.172 Y102.127 E143.55247
G1 X162.502 Y103.137 E143.59278
G1 X161.577 Y103.87 E143.63203
G1 X160.992 Y104.179 E143.65404
G1 X159.7 Y104.546 E143.69871
G1 X87.941 Y104.545 E146.08542
G1 X86.821 Y104.293 E146.12361
G1 X86.146 Y104.001 E146.14807
G1 X85.164 Y103.308 E146.18804
G1 X84.489 Y102.438 E146.22467
G1 X83.985 Y101.382 E146.26358
G1 X83.821 Y100.128 E146.30565
G1 X83.827 Y43.759 E148.18049
G1 X84.052 Y42.737 E148.21529
G1 X84.352 Y42.034 E148.24072
G0 F3600 X84.703 Y42.231
G1 F1800 X85.415 Y41.234 E148.28146
G1 X86.31 Y40.623 E148.31751
G1 X87.091 Y40.254 E148.34624
G1 X88.066 Y40.11 E148.37902
G1 X159.642 Y40.099 E150.75964
G1 X160.796 Y40.426 E150.79954
G1 X161.32 Y40.685 E150.81898
G1 X162.197 Y41.376 E150.85611
G1 X162.4 Y41.614 E150.86652
G1 X162.89 Y42.508 E150.90043
G1 X163.269 Y43.548 E150.93724
G1 X163.268 Y100.688 E152.83773
G1 X162.812 Y101.947 E152.88226
G1 X162.205 Y102.862 E152.91878
G1 X161.358 Y103.533 E152.95472
G1 X160.841 Y103.806 E152.97417
G1 X159.644 Y104.146 E153.01556
G1 X87.985 Y104.145 E155.39895
G1 X86.946 Y103.911 E155.43437
G1 X86.345 Y103.651 E155.45615
G1 X85.442 Y103.014 E155.4929
G1 X84.831 Y102.227 E155.52604
G1 X84.373 Y101.266 E155.56145
G1 X84.221 Y100.128 E155.59963
G1 X84.227 Y43.804 E157.47298
G1 X84.435 Y42.858 E157.50519
G1 X84.703 Y42.231 E157.52787
G0 F3600 X85.054 Y42.428
G1 F1800 X85.7 Y41.523 E157.56486
G1 X86.481 Y40.985 E157.5964
G1 X87.209 Y40.641 E157.62318
G1 X88.124 Y40.506 E157.65394
G1 X159.586 Y40.499 E160.03078
G1 X160.687 Y40.811 E160.06884
G1 X161.104 Y41.024 E160.08441
G1 X161.949 Y41.69 E160.1202
G1 X162.05 Y41.808 E160.12536
G1 X162.514 Y42.645 E160.15719
G1 X162.869 Y43.619 E160.19167
G1 X162.868 Y100.618 E162.08747
G1 X162.452 Y101.767 E162.12811
G1 X161.908 Y102.587 E162.16084
